src/assets/images/template_image/6.svg

<svg width="48" height="48" viewBox="0 0 48 48" fill="none" xmlns="http://www.w3.org/2000/svg"><path opacity=".2" d="M24 46C36.1503 46 46 36.1503 46 24 46 11.8497 36.1503 2 24 2 11.8497 2 2 11.8497 2 24 2 36.1503 11.8497 46 24 46z" fill="#659ef1"/><path d="M17.6125 28.6648 19.1514 36.8718 13 38V29.4598L17.6125 28.6648zM29.1543 27.0909C29.8482 27.0909 30.394 28.477 29.1391 28.7516 27.9295 29.0177 24.8752 29.8477 24.666 29.9046L24.6547 29.9077 30.3044 30.2544C30.3044 30.2544 35.084 28.5658 36.4547 27.9135 37.8308 27.2601 38.4031 28.8662 37.696 29.3275 36.9859 29.791 31.0558 33.7648 30.0822 33.9538 29.1091 34.1406 21.9404 33.9538 21.1128 33.9538 20.334 33.9538 19.5534 35.1903 19.4691 35.3277L19.4616 35.34 18.399 28.7516 22.414 27.3355C22.414 27.3355 28.4606 27.0909 29.1543 27.0909zM28.7407 14.3636 32.0162 17.5556C32.919 18.4369 33.3704 19.612 33.3704 20.7419 33.3704 21.8718 32.919 23.0638 32.0162 23.9451 31.1134 24.8264 29.9271 25.2727 28.7407 25.2727 27.5544 25.2727 26.3681 24.8264 25.4653 23.9451 24.5625 23.0638 24.1111 21.8718 24.1111 20.7419 24.1111 19.612 24.5625 18.4369 25.4653 17.5556L28.7407 14.3636zM19.4815 17.0909 20.3495 18.9659 22.2593 19.8182 20.3495 20.6705 19.4815 22.5455 18.6134 20.6705 16.7037 19.8182 18.6134 18.9659 19.4815 17.0909zM24.1111 8 25.2685 10.5 27.8148 11.6364 25.2685 12.7727 24.1111 15.2727 22.9537 12.7727 20.4074 11.6364 22.9537 10.5 24.1111 8z" fill="#659ef1"/></svg>

<svg width="48" height="48" fill="none" xmlns="http://www.w3.org/2000/svg"><path opacity=".2" d="M24 46c12.15 0 22-9.85 22-22S36.15 2 24 2 2 11.85 2 24s9.85 22 22 22z" fill="#659ef1"/><path d="M17.613 28.665l1.538 8.207L13 38v-8.54l4.613-.795zm11.541-1.574c.694 0 1.24 1.386-.015 1.66-1.21.267-4.264 1.097-4.473 1.154l-.011.003 5.65.346s4.779-1.688 6.15-2.34c1.376-.654 1.948.952 1.241 1.413-.71.464-6.64 4.438-7.614 4.627-.973.187-8.142 0-8.97 0-.778 0-1.559 1.236-1.643 1.374l-.007.012-1.063-6.588 4.015-1.416s6.047-.245 6.74-.245zm-.413-12.727l3.275 3.192a4.476 4.476 0 011.354 3.186c0 1.13-.451 2.322-1.354 3.203a4.682 4.682 0 01-3.275 1.328 4.682 4.682 0 01-3.276-1.328 4.514 4.514 0 01-1.354-3.203c0-1.13.451-2.305 1.354-3.186l3.276-3.192zm-9.26 2.727l.868 1.875 1.91.852-1.91.852-.867 1.875-.869-1.875-1.91-.852 1.91-.852.869-1.875zM24.111 8l1.157 2.5 2.547 1.136-2.547 1.137-1.157 2.5-1.157-2.5-2.547-1.137 2.547-1.136L24.11 8z" fill="#659ef1"/></svg>
